X: 50
T:Maid Behind the Bar (in D), The*****
M:4/4
L:1/8
Q:150
S:Aly Bain Book
R:Reel
K:D
DE || FAAB AFED | FAAB A2 de | fBBA Bcde | f2 gf edBA|\
FAAB AFED | FAAB ABde | fBBA BcdB |[1 AFEF D2 DE:|\
[2 AFEF D2 z2 ||\
a3 g fdde | fdad fddf | efga beef | gebe geeg |\
faaf bfaf | defd efde | fBBA BcdB | AFEF D4:|

